!!!id: BC075
!!!page: 95
!!!COM: Paroles et musique de Chs-Emile GADBOIS
!!!LYR: Chs-Emile GADBOIS
!!!PTL@@FR: Les 100 plus belles chansons
!!!OTL@@FR: La ronde du bonheur
!!!PUB: La Bonne Chanson, inc.
!!!YEM: On ne peut reproduire, enregistrer ou diffuser en tout ou en partie le présent ouvrage, sous quelque procédé que ce soit, électronique, mécanique, photographique, sonore, magnétique ou autre, sans avoir obtenu au préalable l'autorisation écrite de l'éditrice.
!!!PDT: 2011
!!!SMA:2012 Bibliothèque nationale du Québec; Biblothèque nationale du Canada
!!!AGN-Laforte: Chanson strophique (avec refrain), 4:4(7), R(8+8+7+5)
!!!AGN-type: danse? enfants?
!!!AGN-rime: suivies (aabb)
**kern	**dynam	**text	**text	**text	**text
*clefG2	*	*	*	*	*
*k[b-e-]	*	*	*	*	*
*D:	*	*	*	*	*
*M4/4	*	*	*	*	*
*met(c)	*	*	*	*	*
*	*	*v:1	*v:2	*v:3	*vv:(3)
*	*	*pline:1	*pline:5	*pline:9	*pline:13
!!!Note: vv.(3): Pour les Terrains de Jeux
!!LO:TX:a:B:t=Solo
!!LO:TX:a:i:t=Bien régulier
{{8g	.	O	For-	É-	Mes
8g	.	jeu-	-mons	-cou-	a-
8b-	.	-nes-	u-	-tez	-mis,
8b-	.	-se,	-ne	nos	pour
8g	.	vient	chaî-	chants	êtr[e]
8g	.	chan-	-ne	joy-	heu-
=1	=1	=1	=1	=1	=1
4b-	.	-ter	d'or:	-eux;	-reux,
*	*	*rp:e	*rp:ɔ	*rp:ø	*rp:ø
*	*	*rf:te	*rf:ɔʁ	*rf:jø	*rf:ʁø
*	*	*rs:a	*rs:b	*rs:d	*rs:d
*	*	*pline:2	*pline:6	*pline:10	*pline:14
8b-	.	Ton	Un	Quand	Ren-
8cc	.	bon-	a-	on	-dez-
8dd	.	-heur	-mi,	chant[e],	-vous
8cc	.	et	c'est	on	aux
8b-	.	ta	un	est	Ter-
8a	.	gaie-	tré-	heu-	-rains
!!LO:PB:g=original
=2	=2	=2	=2	=2	=2
4g}	.	-té.	-sor.	-reux!	d'jeux;
*	*	*rp:e	*rp:ɔ	*rp:ø	*rp:ø
*	*	*rf:te	*rf:zɔʁ	*rf:ʁø	*rf:ø
*	*	*rs:a	*rs:b	*rs:d	*rs:d
*	*	*pline:3	*pline:7	*pline:11	*pline:15
{8g	.	Si	U-	On	On
8g	.	tu	-nis-	s'a-	s'a-
8b-	.	veux	-sons	-mus[e]	-mus[e]
8b-	.	bien	nos	hon-	hon-
8g	.	t'a-	voix,	-nê-	-nê-
8g	.	-mu-	nos	-te-	-te-
=3	=3	=3	=3	=3	=3
4b-	.	-ser,	cœurs	-ment,	-ment,
*	*	*rp:e	*rp:œ	*rp:ɑ̃	*rp:ɑ̃
*	*	*rf:ze	*rf:œʁ	*rf:mɑ̃	*rf:mɑ̃
*	*	*rs:a	*rs:c	*rs:e	*rs:e
*	*	*pline:4	*pline:8	*pline:12	*pline:16
8b-	.	Viens	Pour	Le	Ça
8cc	.	chan-	chan-	temps	fait
8dd	.	-ter,	-ter	pass[e]	plai-
8cc	.	rir[e]	no-	et	-sir
8b-	.	et	-tre	c'est	aux
8a	.	dan-	bon-	char-	pa-
=4	=4	=4	=4	=4	=4
4g}}	.	-ser!	-heur!	-mant!	-rents.
*	*	*rp:e	*rp:œ	*rp:ɑ̃	*rp:ɑ̃
*	*	*rf:se	*rf:œʁ	*rf:mɑ̃	*rf:ʁɑ̃
*	*	*rs:a	*rs:c	*rs:e	*rs:e
!!LO:PB:g=original
=||	=||	=||	=||	=||	=||
*	*	*refrain	*	*	*
*	*	*pline:R1	*	*	*
!!LO:TX:a:B:t=Refrain
{{8dd	>	Chan-	.	.	.
8b-	]	-te,	.	.	.
*	*	*bis	*	*	*
8dd	>	chan-	.	.	.
8b-	]	-te,	.	.	.
*	*	*Xbis	*	*	*
8dd	.	Voix	.	.	.
8dd	.	tou-	.	.	.
=5	=5	=5	=5	=5	=5
8cc	.	-chan-	.	.	.
8a	.	-te,	.	.	.
*	*	*rp:ɑ̃	*	*	*
*	*	*rf:ɑ̃t,ə	*	*	*
*	*	*rs:Ra1	*	*	*
*	*	*pline:R2	*	*	*
8cc	>	Dan-	.	.	.
8a	]	-se,	.	.	.
*	*	*bis	*	*	*
8cc	>	dan-	.	.	.
8a	]	-se,	.	.	.
*	*	*Xbis	*	*	*
8cc	.	En	.	.	.
8cc	.	ca-	.	.	.
!!LO:PB:g=original
=6	=6	=6	=6	=6	=6
8b-	.	-den-	.	.	.
8g	.	-ce,	.	.	.
*	*	*rp:ɑ̃	*	*	*
*	*	*rf:ɑ̃s,ə	*	*	*
*	*	*rs:Ra2	*	*	*
*	*	*pline:R3	*	*	*
8b-	>	Tour-	.	.	.
8g	]	-ne,	.	.	.
*	*	*bis	*	*	*
8b-	>	tour-	.	.	.
8g	]	-ne	.	.	.
*	*	*Xbis	*	*	*
8b-	<	tout	.	.	.
8cc	.	en	.	.	.
=7	=7	=7	=7	=7	=7
4dd}	[	rond	.	.	.
*	*	*rp:ɔ̃	*	*	*
*	*	*rf:ɔ̃	*	*	*
*	*	*rs:Rb	*	*	*
*	*	*pline:R4	*	*	*
{8g	.	Sur	.	.	.
8g	.	le	.	.	.
4g	.	vert	.	.	.
4fj	>	ga-	.	.	.
=8	=8	=8	=8	=8	=8
4g}}	]	-zon.	.	.	.
*	*	*rp:ɔ̃	*	*	*
*	*	*rf:ɔ̃	*	*	*
*	*	*rs:Rb	*	*	*
==	==	==	==	==	==
*-	*-	*-	*-	*-	*-
!!!RDF**kern: j = editorial accidental, bracket
!!!EED: Isaac Howie
!!!EEV: 2025/Jul/29
